www/assets/icons/forward_to_inbox.svg

<svg xmlns="http://www.w3.org/2000/svg" width="24" height="24" viewBox="0 0 24 24" fill='currentColor'><path d="M19.5 2.5h-16c-1.1 0-2 .9-2 2v12c0 1.1.9 2 2 2h9v-2h-9v-10l8 5 8-5v5h2v-7c0-1.1-.9-2-2-2m-8 7-8-5h16zm7 4 4 4-4 4v-3h-4v-2h4z"/></svg>

<svg width="24" height="24" viewBox="0 0 24 24" xmlns="http://www.w3.org/2000/svg" fill='currentColor'><path d="M19.5 2.5H3.5C2.4 2.5 1.5 3.4 1.5 4.5V16.5C1.5 17.6 2.4 18.5 3.5 18.5H12.5V16.5H3.5V6.5L11.5 11.5L19.5 6.5V11.5H21.5V4.5C21.5 3.4 20.6 2.5 19.5 2.5ZM11.5 9.5L3.5 4.5H19.5L11.5 9.5ZM18.5 13.5L22.5 17.5L18.5 21.5V18.5H14.5V16.5H18.5V13.5Z"/></svg>
